packages/core/src/svgs/para.svg

<svg width="24" height="24" viewBox="0 0 24 24" fill="none" xmlns="http://www.w3.org/2000/svg">
<g clip-path="url(#clip0_31_15712)">
<path d="M0 0H24V24H0V0Z" fill="#F0F3FA"/>
<path d="M5.84575 10.3758L11.94 13.6673C12.24 13.8301 12.6086 13.8301 12.9086 13.6673L18.1586 10.8258C18.37 10.717 18.5473 10.552 18.6711 10.349C18.7949 10.146 18.8604 9.91288 18.8604 9.67512C18.8604 9.43735 18.7949 9.20419 18.6711 9.0012C18.5473 8.79821 18.37 8.63324 18.1586 8.5244L12.1586 5.29297C11.9757 5.19395 11.7709 5.14209 11.5629 5.14209C11.3549 5.14209 11.1501 5.19395 10.9672 5.29297L5.84146 8.07869C5.63117 8.18792 5.4549 8.3528 5.33188 8.55533C5.20886 8.75787 5.1438 8.99029 5.1438 9.22726C5.1438 9.46423 5.20886 9.69665 5.33188 9.89919C5.4549 10.1017 5.63117 10.2666 5.84146 10.3758H5.84575Z" fill="url(#paint0_linear_31_15712)"/>
<path d="M7.13996 12.4414L12 15.0128C12.3214 15.1843 12.7157 15.1843 13.0285 15L16.77 12.8443L18.1542 13.59C18.3656 13.6988 18.543 13.8638 18.6668 14.0668C18.7906 14.2698 18.8561 14.5029 18.8561 14.7407C18.8561 14.9785 18.7906 15.2116 18.6668 15.4146C18.543 15.6176 18.3656 15.7826 18.1542 15.8914L12.9085 18.7328C12.6085 18.8957 12.24 18.9 11.94 18.7328L5.84568 15.4457C5.63409 15.3372 5.45645 15.1726 5.33228 14.9699C5.2081 14.7671 5.14217 14.534 5.14173 14.2963C5.14128 14.0585 5.20634 13.8252 5.32977 13.622C5.45319 13.4188 5.63021 13.2535 5.84139 13.1443L7.13996 12.4414Z" fill="url(#paint1_linear_31_15712)"/>
</g>
<defs>
<linearGradient id="paint0_linear_31_15712" x1="5.14289" y1="9.5444" x2="17.3743" y2="9.45869" gradientUnits="userSpaceOnUse">
<stop stop-color="#02DAFF"/>
<stop offset="1" stop-color="#5414F1"/>
</linearGradient>
<linearGradient id="paint1_linear_31_15712" x1="5.14282" y1="14.61" x2="17.3742" y2="14.5285" gradientUnits="userSpaceOnUse">
<stop stop-color="#FECF7B"/>
<stop offset="1" stop-color="#EF26A8"/>
</linearGradient>
<clipPath id="clip0_31_15712">
<rect width="24" height="24" fill="white"/>
</clipPath>
</defs>
</svg>

<svg xmlns="http://www.w3.org/2000/svg" width="24" height="24" fill="none" viewBox="0 0 24 24"><g clip-path="url(#a)"><path fill="#F0F3FA" d="M0 0h24v24H0z"/><path fill="url(#b)" d="m5.846 10.376 6.094 3.291c.3.163.669.163.969 0l5.25-2.841a1.294 1.294 0 0 0 0-2.302l-6-3.231a1.25 1.25 0 0 0-1.192 0L5.841 8.079a1.294 1.294 0 0 0 0 2.297z"/><path fill="url(#c)" d="M7.14 12.441 12 15.013c.321.171.716.171 1.028-.013l3.742-2.156 1.384.746a1.294 1.294 0 0 1 0 2.301l-5.245 2.842a1.01 1.01 0 0 1-.969 0l-6.094-3.287a1.295 1.295 0 0 1-.005-2.302z"/></g><defs><linearGradient id="b" x1="5.143" x2="17.374" y1="9.544" y2="9.459" gradientUnits="userSpaceOnUse"><stop stop-color="#02DAFF"/><stop offset="1" stop-color="#5414F1"/></linearGradient><linearGradient id="c" x1="5.143" x2="17.374" y1="14.61" y2="14.528" gradientUnits="userSpaceOnUse"><stop stop-color="#FECF7B"/><stop offset="1" stop-color="#EF26A8"/></linearGradient><clipPath id="a"><path fill="#fff" d="M0 0h24v24H0z"/></clipPath></defs></svg>
